svg/300/sharp/table_rows_narrow-fill.svg

<svg xmlns="http://www.w3.org/2000/svg" width="48" height="48" viewBox="0 -960 960 960"><path d="m140.001-319.231 691.921-7.693-11.923-130.384-691.921 7.693 11.923 130.384Zm0-183.461 691.921-7.693-11.923-130.769-691.921 8.078 11.923 130.384Zm0-183.845 691.921-7.693-11.923-130.384-691.921 7.693 11.923 130.384Zm679.998 546.536v-691.921 703.844-11.923Zm-679.998 4.615 691.921-7.693-11.923-130.769-691.921 8.078 11.923 130.384Z"/></svg>

<svg xmlns="http://www.w3.org/2000/svg" width="48" height="48" viewBox="0 -960 960 960"><path d="m140-319.23 691.92-7.69L820-457.31l-691.92 7.69L140-319.23Zm0-183.46 691.92-7.69L820-641.15l-691.92 8.07L140-502.69Zm0-183.85 691.92-7.69L820-824.61l-691.92 7.69L140-686.54ZM820-140v-691.92 703.84V-140Zm-680 4.61 691.92-7.69L820-273.85l-691.92 8.08L140-135.39Z"/></svg>
